newicons/china_zhejiang_mobile.svg

<?xml version="1.0" encoding="UTF-8" standalone="no"?>
<svg
   viewBox="0 0 48 48"
   version="1.1"
   id="svg1"
   sodipodi:docname="china_zhejiang_mobile.svg"
   inkscape:version="1.2.2 (b0a8486541, 2022-12-01)"
   xml:space="preserve"
   xmlns:inkscape="http://www.inkscape.org/namespaces/inkscape"
   xmlns:sodipodi="http://sodipodi.sourceforge.net/DTD/sodipodi-0.dtd"
   xmlns="http://www.w3.org/2000/svg"
   xmlns:svg="http://www.w3.org/2000/svg"><sodipodi:namedview
     id="namedview1"
     pagecolor="#505050"
     bordercolor="#eeeeee"
     borderopacity="1"
     inkscape:showpageshadow="0"
     inkscape:pageopacity="0"
     inkscape:pagecheckerboard="0"
     inkscape:deskcolor="#505050"
     inkscape:zoom="4.453125"
     inkscape:cx="-13.922807"
     inkscape:cy="-1.3473684"
     inkscape:window-width="1918"
     inkscape:window-height="1053"
     inkscape:window-x="0"
     inkscape:window-y="0"
     inkscape:window-maximized="1"
     inkscape:current-layer="svg1"
     showgrid="false" /><defs
     id="defs1"><style
   id="style1">.a { fill:none;stroke:#fff;stroke-linecap:round;stroke-linejoin:round; }
</style>
	

		
		
		
	
			
			
			
			
			
		</defs><path
     id="path2169"
     style="fill:none;stroke:#ffffff;stroke-width:1;stroke-linecap:round;stroke-linejoin:round;stroke-dasharray:none;stroke-opacity:1"
     d="m 31.99235,40.527035 c 3.671129,-2.959903 8.489484,-7.36181 9.713195,-8.652025 M 3.9999997,25.044467 c 0,0 0,0.683054 0.2294455,1.745584 0.076482,0.15179 0.076482,0.455369 0.2294455,0.683053 0.3824093,0.758951 2.1414914,3.718854 4.6653919,6.678757 4.9713194,5.768018 8.1070744,7.5136 10.1720844,8.57613 2.600381,1.290214 7.801146,1.745584 12.695983,-2.200954 M 25.950286,36.504603 C 27.78585,35.214389 35.28107,28.307948 36.734224,26.638259 M 4.3059271,20.946138 c 0,0 -0.1529637,0.607159 -0.2294456,1.138423 0,0 -0.076482,0.531266 0.1529637,0.986635 5.4302101,7.741286 11.1663478,12.522668 13.3843218,13.736989 2.5239,1.366107 5.43021,1.745581 8.336519,-0.303582 M 15.931166,7.4368356 C 12.260038,10.396739 7.4416824,14.798647 6.2179729,16.088861 M 44,22.919404 c 0,0 0,-0.758949 -0.229448,-1.745583 0,-0.151791 -0.07647,-0.45537 -0.229444,-0.683055 C 43.158701,19.731815 41.399616,16.771913 38.875716,13.887905 33.904396,8.1198903 30.768641,6.3743063 28.703631,5.311777 26.10325,3.9456678 20.902485,3.5661931 15.931166,7.4368356 m 6.118546,4.0983274 c -1.835564,1.290213 -9.330784,8.196654 -10.783939,9.866345 m 32.351817,5.616225 c 0,0 0.152962,-0.607159 0.229444,-1.138424 0,0 0.07648,-0.531264 -0.152963,-0.986634 C 38.263861,17.15139 32.527723,12.370008 30.30975,11.155688 27.862332,9.8654739 24.956021,9.4101046 22.049712,11.535163 m 20.956021,17.00047 C 39.48757,23.90604 34.210324,19.200553 32.75717,17.986234 31.762905,17.15139 30.692159,16.771915 29.697896,16.771915 c -0.994265,0 -1.988527,0.45537 -2.829828,1.138423 -0.152964,0.151791 -0.38241,0.379476 -0.688337,0.60716 -2.065009,1.745585 -8.565964,7.665391 -8.718928,7.81718 -0.458892,0.45537 -1.147228,0.758951 -1.835565,0.758951 -0.611855,0 -1.300191,-0.303581 -1.988527,-0.91074 M 5.4531544,17.75855 c 0,0 -0.3059273,0.607158 -0.4588907,0.986634 -0.1529637,0.379475 0,0.531264 0.076482,0.683054 0.8413,1.214319 4.8183556,5.919807 10.2485663,10.549399 0.994263,0.834845 2.065009,1.214319 3.059273,1.214319 0.994263,0 1.988528,-0.45537 2.829828,-1.138424 0.152963,-0.15179 0.458891,-0.379475 0.688335,-0.60716 2.06501,-1.745583 6.042066,-5.312646 7.87763,-7.058231 0.382409,-0.379474 0.688336,-0.607158 0.841299,-0.758949 0.458892,-0.455369 1.147228,-0.758951 1.835565,-0.758951 0.611855,0 1.300191,0.303582 1.988528,0.910742 m 8.183556,8.348444 c 0,0 0.305926,-0.60716 0.45889,-1.06253 0.07648,-0.227684 0,-0.455369 -0.07647,-0.531264" /></svg>

<?xml version="1.0" encoding="UTF-8"?><svg id="a" xmlns="http://www.w3.org/2000/svg" viewBox="0 0 48 48"><defs><style>.c{fill:none;stroke:#fff;stroke-linecap:round;stroke-linejoin:round;}</style></defs><path id="b" class="c" d="M31.9923,40.526c3.6711-2.9599,8.4895-7.3618,9.7132-8.652M4,25.0435s0,.6831.2294,1.7456c.0765.1518.0765.4554.2294.6831.3824.759,2.1415,3.7189,4.6654,6.6788,4.9713,5.768,8.1071,7.5136,10.1721,8.5761,2.6004,1.2902,7.8011,1.7456,12.696-2.201M25.9503,36.5036c1.8356-1.2902,9.3308-8.1967,10.7839-9.8663M4.3059,20.9451s-.153.6072-.2294,1.1384c0,0-.0765.5313.153.9866,5.4302,7.7413,11.1663,12.5227,13.3843,13.737,2.5239,1.3661,5.4302,1.7456,8.3365-.3036M15.9312,7.4358c-3.6711,2.9599-8.4895,7.3618-9.7132,8.652M44,22.9184s0-.7589-.2294-1.7456c0-.1518-.0765-.4554-.2294-.6831-.3824-.7589-2.1415-3.7189-4.6654-6.6029-4.9713-5.768-8.1071-7.5136-10.1721-8.5761-2.6004-1.3661-7.8011-1.7456-12.7725,2.1251M22.0497,11.5341c-1.8356,1.2902-9.3308,8.1967-10.7839,9.8663M43.6176,27.0167s.153-.6072.2294-1.1384c0,0,.0765-.5313-.153-.9866-5.4302-7.7413-11.1664-12.5227-13.3843-13.737-2.4474-1.2902-5.3537-1.7456-8.26.3795M43.0057,28.5346c-3.5182-4.6296-8.7954-9.3351-10.2486-10.5494-.9943-.8348-2.065-1.2143-3.0593-1.2143s-1.9885.4554-2.8298,1.1384c-.153.1518-.3824.3795-.6883.6072-2.065,1.7456-8.566,7.6654-8.7189,7.8172-.4589.4554-1.1472.759-1.8356.759-.6119,0-1.3002-.3036-1.9885-.9107M5.4532,17.7575s-.3059.6072-.4589.9866,0,.5313.0765.6831c.8413,1.2143,4.8184,5.9198,10.2486,10.5494.9943.8348,2.065,1.2143,3.0593,1.2143s1.9885-.4554,2.8298-1.1384c.153-.1518.4589-.3795.6883-.6072,2.065-1.7456,6.0421-5.3126,7.8776-7.0582.3824-.3795.6883-.6072.8413-.7589.4589-.4554,1.1472-.759,1.8356-.759.6119,0,1.3002.3036,1.9885.9107M42.6233,30.1284s.3059-.6072.4589-1.0625c.0765-.2277,0-.4554-.0765-.5313"/></svg>
